!!!COM: Beethoven
!!!OTL: 7 Variations on a Quartet by Winter 
!!!Variation: Variation 5b
**function	**harm	**kern	**kern
*M2/4	*M2/4	*staff2	*staff1
*F:	*F:	*clefG2	*clefG2
*tb16	*	*k[b-]	*k[b-]
*	*	*M2/4	*M2/4
*	*	*F:	*F:
4T	4I	(8CL	(8.ffL 8.aa
.	.	16FJk)	.
.	.	16r	16eeJk) 16gg
=	=	=259	=259
2T	2I	(8FL	(8.ddL 8.ff
.	.	16AJk)	.
.	.	16r	16ccJk) 16ee
.	.	(8AL	16b-'LL 16dd'
.	.	.	16a' 16cc'
.	.	16cJk)	16g' 16b-'
.	.	16r	16f'JJ 16a'
=	=	=260	=260
4T	4V2	(4B-	16r
.	.	.	16e'LK 16g'
.	.	.	8ccJ
4T	4I6	4A)	16r
.	.	.	16f'LK 16a'
.	.	.	8ccJ
=	=	=261	=261
*	*	*	*^
8T	8V43	8GL	(16b-LL	8r
.	.	.	16cc	.
8T	8I	8FJ	16dd-	8b-
.	.	.	16ccJJ)	.
8T	8viio7	8EL	(16dd-LL	8b-L
.	.	.	16cc	.
8T	8I	8FJ	16dd-	8b-J
.	.	.	16ccJJ)	.
=	=	=262	=262	=262
4T	4V7	8GL	8cc	8b-
.	.	8CJ	8r	8r
*	*	*	*v	*v
4T	4I	(8CCL	(8.aaL 8.ccc 8.fff
.	.	16FFJk)	.
.	.	16r	16ggJk) 16bb- 16eee
=	=	=263	=263
2T	2I	(8FFL	(8.ffL 8.aa 8.ddd
.	.	16AAJk)	.
.	.	16r	16eeJk) 16gg 16ccc
.	.	(8AAL	16dd'LL 16ff' 16bb-'
.	.	.	16cc' 16ee' 16aa'
.	.	16CJk)	16b-' 16dd' 16gg'
.	.	16r	16a'JJ 16cc' 16ff'
=	=	=264	=264
4T	4V2	(4BB-	16r
.	.	.	16g'LK 16cc' 16ee'
.	.	.	8eeJ 8gg 8ccc
4T	4I6	4AA)	16r
.	.	.	16a'LK 16cc' 16ff'
.	.	.	8ffJ 8aa 8ccc
=	=	=265	=265
4D	4C64/V	8GG'L	16r
.	.	.	16cc 16ee 16gg
.	.	8GG'J	16r
.	.	.	16cc 16ee 16gg
4D	4V65/V	8AA'L	16r
.	.	.	16dd 16ff 16gg
.	.	8BB'J	16r
.	.	.	16dd 16ff 16gg
=	=	=266	=266
2D	2V	(4C	(16ccLL 16gg
.	.	.	16ee 16ff#
.	.	.	16cc 16gg
.	.	.	16eeJJ 16ff#
.	.	8DL	16ccLL 16gg
.	.	.	16ee 16ff#
.	.	8EJ)	16cc 16gg
.	.	.	16eeJJ) 16ff#
=	=	=267	=267
4D	4C64/V	(8GGL 8C	(16ccLL 16aa
.	.	.	16ee) 16gg
.	.	16GJk)	16ee' 16gg'
.	.	16r	16ee'JJ 16gg'
4D	4V7/V	(8GGL 8BB	(16ddLL 16aa
.	.	.	16ff) 16gg
.	.	16GJk)	16ff' 16gg'
.	.	16r	16ff'JJ 16gg'
=	=	=268	=268
2D	2V	(4C	(16ccLL 16gg
.	.	.	16ee 16ff#
.	.	.	16cc 16gg
.	.	.	16eeJJ 16ff#
.	.	8DL	16ccLL 16gg
.	.	.	16ee 16ff#
.	.	8EJ)	16cc 16gg
.	.	.	16eeJJ) 16ff#
=	=	=269	=269
4D	4C64/V	(8GGL 8C	(16ccLL 16aa
.	.	.	16ee) 16gg
.	.	16GJk)	16ee' 16gg'
.	.	16r	16ee'JJ 16gg'
4D	4V7/V	(8GGL 8BB	(16ddLL 16aa
.	.	.	16ff) 16gg
.	.	16GJk)	16ff' 16gg'
.	.	16r	16ff'JJ 16gg'
=	=	=270	=270
4D	4V	4C;	8ee;L [8gg;
.	.	.	8cc;J
*-	*-	*-	*-
